lib/brands/icons/postgraphile.svg

<svg xmlns="http://www.w3.org/2000/svg" fill="none" aria-hidden="true" viewBox="0 0 48 48"><g id="postgraphile-Icon"><g id="Group"><path id="Vector" fill="#468BCC" d="M8.34685 25.1113L5.99902 17.1287L13.3555 6.64172L27.599 25.1113H8.34685Z"/><path id="Vector_2" fill="#4BA8FF" d="M5.99902 17.1287L13.3555 6.64172L23.999 9.92868L27.599 25.1113L5.99902 17.1287Z"/><path id="Vector_3" fill="#468BCC" d="M13.3555 6.64172L23.9989 9.92868L34.6424 6.64172L27.5989 25.1113L13.3555 6.64172Z"/><path id="Vector_4" fill="#468BCC" d="M23.999 9.92868L34.6425 6.64172L41.999 17.1287L27.599 25.1113L23.999 9.92868Z"/><path id="Vector_5" fill="#4BA8FF" d="M34.6426 6.64172L41.9991 17.1287L39.6513 25.1113H27.5991L34.6426 6.64172Z"/><path id="Vector_6" fill="#468BCC" d="M41.999 17.1287L39.6512 25.1113L23.999 38.8852L27.599 25.1113L41.999 17.1287Z"/><path id="Vector_7" fill="#468BCC" d="M39.651 25.1113L23.9989 38.8852L8.34668 25.1113H27.5989H39.651Z"/><path id="Vector_8" fill="#468BCC" d="M23.999 38.8852L8.34685 25.1113L5.99902 17.1287L27.599 25.1113L23.999 38.8852Z"/><path id="Vector_9" fill="#468BCC" d="M8.34685 25.1113L5.99902 17.1287L27.599 25.1113H8.34685Z"/><path id="Vector_10" fill="white" d="M16.9554 29.0244L19.6162 30.7461L15.3901 34.033L16.9554 29.0244Z"/><path id="Vector_11" fill="#082744" d="M16.836 28.987L15.2707 33.9957C15.2342 34.1128 15.3703 34.2072 15.4671 34.1319L19.6932 30.8449C19.7613 30.792 19.7567 30.6878 19.6844 30.6409L17.0235 28.9192C16.954 28.8742 16.8607 28.9079 16.836 28.987ZM17.0258 29.219L19.4003 30.7554L15.629 33.6886L17.0258 29.219Z"/><path id="Vector_12" fill="white" d="M31.0427 29.0244L28.3818 30.7461L32.6079 34.033L31.0427 29.0244Z"/><path id="Vector_13" fill="#082744" d="M30.9744 28.9192L28.3135 30.6409C28.2412 30.6878 28.2367 30.792 28.3047 30.8449L32.5308 34.1319C32.6276 34.2072 32.7638 34.1128 32.7272 33.9957L31.162 28.987C31.1372 28.9079 31.044 28.8742 30.9744 28.9192ZM30.9721 29.219L32.3688 33.6886L28.5976 30.7554L30.9721 29.219Z"/><path id="Vector_14" fill="#4BA8FF" d="M15.3901 15.2504L20.5554 8.86432H27.4423L23.9988 19.9461L15.3901 15.2504Z"/><path id="Vector_15" fill="#468BCC" d="M20.5557 8.86432H27.4426L32.6078 15.2504L23.9991 19.9461L20.5557 8.86432Z"/><path id="Vector_16" fill="#166EBF" d="M27.4425 8.86432L32.6077 15.2504V28.5548L23.999 19.9461L27.4425 8.86432Z"/><path id="Vector_17" fill="#0B457F" d="M32.6077 15.2504V28.5548L27.4425 31.9983L23.999 19.9461L32.6077 15.2504Z"/><path id="Vector_18" fill="#0C3861" d="M32.6077 28.5547L27.4425 31.9982L23.999 41.233V19.946L32.6077 28.5547Z"/><path id="Vector_19" fill="#166EBF" d="M27.4426 31.9982V39.5113L23.9991 41.233L20.5557 31.9982L23.9991 19.946L27.4426 31.9982Z"/><path id="Vector_20" fill="#4BA8FF" d="M23.9988 41.233L20.5554 39.5113V31.9982L15.3901 28.5547L23.9988 19.946V41.233Z"/><path id="Vector_21" fill="#166EBF" d="M20.5554 31.9983L15.3901 28.5548V15.2504L23.9988 19.9461L20.5554 31.9983Z"/><path id="Vector_22" fill="#468BCC" d="M15.3901 28.5548V15.2504L23.9988 19.9461L15.3901 28.5548Z"/><path id="Vector_23" fill="#082744" d="M27.4425 8.73914H20.5556C20.5178 8.73914 20.482 8.75621 20.4582 8.78561L15.293 15.1717C15.275 15.194 15.2651 15.2218 15.2651 15.2504V28.5548L15.2654 28.5621C15.2676 28.6012 15.2881 28.6371 15.3209 28.659L20.4304 32.0653V39.5113C20.4304 39.5587 20.4572 39.6021 20.4996 39.6233L23.9431 41.345C23.9783 41.3627 24.0198 41.3627 24.055 41.345L27.4985 39.6233L27.5045 39.6201C27.5434 39.598 27.5677 39.5565 27.5677 39.5113V32.0653L32.6772 28.659C32.712 28.6358 32.733 28.5967 32.733 28.5548V15.2504C32.733 15.2218 32.7231 15.194 32.7051 15.1717L27.5399 8.78561C27.5161 8.75621 27.4803 8.73914 27.4425 8.73914ZM27.3827 8.98957L32.4825 15.2948V28.4877L27.3731 31.8941L27.3671 31.8983C27.3358 31.9219 27.3173 31.9589 27.3173 31.9983V39.4339L23.999 41.0931L20.6808 39.4339V31.9983L20.6806 31.9909C20.6783 31.9519 20.6578 31.9159 20.625 31.8941L15.5156 28.4878V15.2947L20.6153 8.98957H27.3827Z"/><path id="Vector_24" fill="white" d="M17.2686 18.8504L21.3381 20.1026L17.2686 21.6678V18.8504Z"/><path id="Vector_25" fill="white" d="M30.7292 18.8504L26.6597 20.1026L30.7292 21.6678V18.8504Z"/></g></g></svg>

<svg xmlns="http://www.w3.org/2000/svg" fill="none" aria-hidden="true" viewBox="0 0 48 48"><path fill="#468BCC" d="M8.347 25.111 5.999 17.13l7.356-10.487L27.6 25.112H8.347Z"/><path fill="#4BA8FF" d="m5.999 17.129 7.356-10.487L24 9.929l3.6 15.182L6 17.129Z"/><path fill="#468BCC" d="m13.356 6.642 10.643 3.287 10.643-3.287-7.043 18.47-14.243-18.47Z"/><path fill="#468BCC" d="m23.999 9.929 10.643-3.287L42 17.129l-14.4 7.982L24 9.929Z"/><path fill="#4BA8FF" d="M34.642 6.642 42 17.129l-2.348 7.982H27.6l7.043-18.47Z"/><path fill="#468BCC" d="m41.999 17.129-2.348 7.982L24 38.885l3.6-13.774L42 17.129Z"/><path fill="#468BCC" d="M39.651 25.111 24 38.885 8.347 25.111H39.65Z"/><path fill="#468BCC" d="M23.999 38.885 8.347 25.111 5.999 17.13l21.6 7.982-3.6 13.774Z"/><path fill="#468BCC" d="M8.347 25.111 5.999 17.13l21.6 7.982H8.347Z"/><path fill="#fff" d="m16.956 29.024 2.66 1.722-4.226 3.287 1.566-5.009Z"/><path fill="#082744" d="m16.836 28.987-1.565 5.009c-.037.117.1.211.196.136l4.226-3.287a.125.125 0 0 0-.009-.204l-2.66-1.722a.125.125 0 0 0-.188.068Zm.19.232 2.374 1.536-3.77 2.934 1.396-4.47Z"/><path fill="#fff" d="m31.043 29.024-2.661 1.722 4.226 3.287-1.565-5.009Z"/><path fill="#082744" d="m30.974 28.92-2.66 1.72a.125.125 0 0 0-.01.205l4.227 3.287a.125.125 0 0 0 .196-.136l-1.565-5.009a.125.125 0 0 0-.188-.068Zm-.002.299 1.397 4.47-3.771-2.934 2.374-1.536Z"/><path fill="#4BA8FF" d="m15.39 15.25 5.166-6.386h6.887l-3.444 11.082-8.609-4.696Z"/><path fill="#468BCC" d="M20.555 8.864h6.887l5.166 6.386-8.609 4.696-3.444-11.082Z"/><path fill="#166EBF" d="m27.442 8.864 5.166 6.386v13.305l-8.609-8.609 3.444-11.082Z"/><path fill="#0B457F" d="M32.608 15.25v13.305l-5.165 3.443-3.444-12.052 8.609-4.696Z"/><path fill="#0C3861" d="m32.608 28.555-5.165 3.443-3.444 9.235V19.946l8.609 8.609Z"/><path fill="#166EBF" d="M27.442 31.998v7.513L24 41.233l-3.444-9.235L24 19.946l3.444 12.052Z"/><path fill="#4BA8FF" d="m24 41.233-3.444-1.722v-7.513l-5.166-3.443L24 19.946v21.287Z"/><path fill="#166EBF" d="m20.556 31.998-5.166-3.443V15.25L24 19.946l-3.444 12.052Z"/><path fill="#468BCC" d="M15.39 28.555V15.25L24 19.946l-8.61 8.609Z"/><path fill="#082744" d="M27.442 8.74h-6.886a.125.125 0 0 0-.098.046l-5.165 6.386a.125.125 0 0 0-.028.078v13.312c.003.04.023.075.056.097l5.11 3.406v7.446c0 .048.026.091.069.112l3.443 1.722a.125.125 0 0 0 .112 0l3.444-1.722.006-.003a.125.125 0 0 0 .063-.109v-7.446l5.11-3.406a.125.125 0 0 0 .055-.104V15.25a.125.125 0 0 0-.028-.078L27.54 8.786a.125.125 0 0 0-.098-.047Zm-.06.25 5.1 6.305v13.193l-5.109 3.406-.006.004a.125.125 0 0 0-.05.1v7.436L24 41.094l-3.318-1.66V31.99a.125.125 0 0 0-.056-.097l-5.11-3.406V15.295l5.1-6.305h6.768Z"/><path fill="#fff" d="m17.269 18.85 4.07 1.253-4.07 1.565V18.85Zm13.461 0-4.07 1.253 4.07 1.565V18.85Z"/></svg>
